!!!!SEGMENT: pl-wnifc--6666-n--002_namyslowski-karol--mazur-sokol-.krn
!!!cenid: 18xx:3985
!!!COM: Namysłowski, Karol
!!!COM-rismID: pe30020486
!!!CDT: 1856-1925
!!!CNT: Polish
!!!OTL: Mazur „Sokół”
!!!PDT:
!!!AGN:
!!!SMS-siglum: PL-Wnifc
!!!SMS-shelfmark: 6666/n
!!!SMS-shelfwork: 002 W
!!!SMS-variant:
!!!SMS-altvar:
!!!NIFC-rismSourceID: 1001150235
!!!NIFC-rismChildID: 1001150247
!!!NIFC-islandoraID: nifc:213162
!!!URL-pdf-islandora: https://repozytorium.nifc.pl/islandora/object/nifc%3A213162/datastream/PDF/view
!!!URL-scan: https://polish.musicsources.pl/pl/lokalizacje/galeria/klocki-introligatorskie/687 @EN{Scan on Polish Music Sources Website} @PL{Skany w portalu Dziedzictwo Muzyki Polskiej w otwartym dostępie}
!!!ONB-nifc: UWAGA: skan 5-6
!!!AIN: 2 piano 1 violn
!!!key: D
**kern	**dynam	**kern	**dynam	**kern	**dynam
*part3	*part3	*part2	*part2	*part1	*part1
*staff3	*	*staff2	*	*staff1	*
*I"PIANO.	*	*I"PIANO.	*	*I"SKRZYPCE.	*
*I'Pf	*	*I'Pf	*	*I'Vl.	*
*Ipiano	*	*Ipiano	*	*Ivioln	*
*ICvox	*	*ICvox	*	*ICstr	*
*clefF4	*	*clefG2	*	*clefG2	*
*k[f#c#]	*	*k[f#c#]	*	*k[f#c#]	*
*D:	*	*D:	*	*D:	*
*M3/8	*	*M3/8	*	*M3/8	*
=1	=1	=1	=1	=1	=1
8D\L 8F# 8A 8d	.	16.ff#\LL	f	4.ryy	.
.	.	32gg\JJk	.	.	.
8D\ 8F# 8A 8d	.	8aa\L	.	.	.
8D\J 8E#X 8G#X 8B	.	8bb\J	.	.	.
=2	=2	=2	=2	=2	=2
16D\ 16F# 16A	.	16dd\ 16ff# 16aa	.	4.ryy	.
16r	.	16r	.	.	.
4D^\ 4F# 4A 4d	.	4ff#^\ 4ddd	.	.	.
=3	=3	=3	=3	=3	=3
16D\ 16F# 16A 16d	.	16ff#\ 16ddd 16fff#	.	4.ryy	.
16r	.	16r	.	.	.
4D^\ 4E#X 4G#X 4B	.	8.dd^\L 8.ee#X 8.ddd	.	.	.
.	.	16bb\Jk	.	.	.
=4	=4	=4	=4	=4	=4
8D\ 8F# 8A 8d	.	16.aa\LL	.	4.ryy	.
.	.	32ff#\JJk	.	.	.
4D\ 4F# 4A 4d	.	4dd\	.	.	.
!LO:LB:g=original	!	!LO:LB:g=original	!	!LO:LB:g=original	!
=5	=5	=5	=5	=5	=5
!	!	!LO:TUP:a	!	!	!
8AA\L	.	(24ee\LL	mf	4.ryy	.
.	.	24dd#X\	.	.	.
.	.	24ee\JJ)	.	.	.
8C#\ 8E 8G	.	8cc#\L	.	.	.
8C#\J 8E 8G	.	8ee\J	.	.	.
=6	=6	=6	=6	=6	=6
!	!	!LO:TUP:a	!	!	!
8D\L	.	(24ff#\LL	.	4.ryy	.
.	.	24gg\	.	.	.
.	.	24gg#X\JJ)	.	.	.
8F#\ 8A 8d	.	8aa\L	.	.	.
8F#\J 8A 8d	sfz	8aa^\J	sfz	.	.
=7	=7	=7	=7	=7	=7
8E\L	.	16.gg#X\LL	.	4.ryy	.
.	.	32bb\JJk	.	.	.
8G#X\ 8B 8d	.	8ddd\L	.	.	.
8G#\J 8B 8d	sfz	8ccc#\J	sfz	.	.
=8	=8	=8	=8	=8	=8
16AA\ 16C# 16E 16A	.	16cc#\ 16ee 16aa	.	4.ryy	.
16r	.	16r	.	.	.
4AA^\ 4C# 4E 4A	.	4aa^\ 4aaa	sfz	.	.
!LO:LB:g=original	!	!LO:LB:g=original	!	!LO:LB:g=original	!
=9	=9	=9	=9	=9	=9
8D\L 8F# 8A 8d	.	16ff#\LL	f	4.ryy	.
.	.	16ggn\JJ	.	.	.
8D\ 8F# 8A 8d	.	8aa\L	.	.	.
8D\J 8E#X 8G#X 8B	.	8bb\J	.	.	.
=10	=10	=10	=10	=10	=10
16D\ 16F# 16A	.	16dd\ 16ff# 16aa	.	4.ryy	.
16r	.	16r	.	.	.
4D^\ 4F# 4A 4d	.	4ff#^\ 4ddd	.	.	.
=11	=11	=11	=11	=11	=11
16D\ 16F# 16A 16d	.	16ff#\ 16ddd 16fff#	.	4.ryy	.
16r	.	16r	.	.	.
4D^\ 4E#X 4G#X 4B	.	8.dd^\L 8.ee#X 8.ddd	.	.	.
.	.	16bb\Jk	.	.	.
=12	=12	=12	=12	=12	=12
8D\ 8F# 8A 8d	.	16.aa\LL	.	4.ryy	.
.	.	32ff#\JJk	.	.	.
4D\ 4F# 4A 4d	.	4dd\	.	.	.
!LO:LB:g=original	!	!LO:LB:g=original	!	!LO:LB:g=original	!
=13	=13	=13	=13	=13	=13
8AA\L	.	16.dd#X\LL	.	4.ryy	.
.	.	32ee\JJk	.	.	.
8C#\ 8E 8G	.	8ff#\L	.	.	.
8C#\J 8E 8G	.	8gg\J	.	.	.
=14	=14	=14	=14	=14	=14
8D\L	.	16gg#X\LL	.	4.ryy	.
.	.	16aa\	.	.	.
8E#X\ 8G#X 8B	.	16bb\	.	.	.
.	.	16ddd\J	.	.	.
8F#\J 8A 8d	.	8fff#\J	.	.	.
=15	=15	=15	=15	=15	=15
8G#X\L 8d 8e	.	16.eee\LL	.	4.ryy	.
.	.	32bb\JJk	.	.	.
8Gn\ 8A 8e	.	8ccc#\L	.	.	.
8E\J 8G 8A 8c#	.	8aa\J	.	.	.
=16	=16	=16	=16	=16	=16
8F#\L 8A 8d	.	8ddd\L	.	4.ryy	.
8DD\J 8D	.	8ff#\J 8ddd	.	.	.
!	!	!LO:TX:b:i:t=Fine.	!	!	!
8r	.	8r	.	.	.
!LO:PB:g=original	!	!LO:PB:g=original	!	!LO:PB:g=original	!
=17||	=17||	=17||	=17||	=17||	=17||
*k[f#c#g#]	*	*k[f#c#g#]	*	*k[f#c#g#]	*
*A:	*	*A:	*	*A:	*
8AA\L 8C# 8E 8A	.	8a^\L 8cc# 8ee	f sfz	4.ryy	.
8AA\ 8C# 8E 8A	.	16.aa\L	.	.	.
.	.	32ee\K	.	.	.
8AA\J 8C# 8E 8A	.	16.ccc#\	.	.	.
.	.	32aa\JJk	.	.	.
=18	=18	=18	=18	=18	=18
8AA\L 8C# 8E 8A	.	16.eee\LL	.	4.ryy	.
.	.	32ccc#\K	.	.	.
8AA\ 8C# 8E 8A	.	16.eee\	.	.	.
.	.	32ccc#\K	.	.	.
8AA\J 8C# 8E 8A	.	16.eee\	.	.	.
.	.	32fff#\JJk	.	.	.
=19	=19	=19	=19	=19	=19
8E\L 8G# 8B 8d	.	16.eee\LL	.	4.ryy	.
.	.	32ddd\JJk	.	.	.
8E\ 8G# 8B 8d	.	8bb\L	.	.	.
8E\J 8G# 8B 8d	.	8ccc#\J	.	.	.
=20	=20	=20	=20	=20	=20
8AA\L 8C# 8E 8A	.	16.bb\LL	.	4.ryy	.
.	.	32aa\JJk	.	.	.
8AA\ 8C# 8E 8A	.	4ee\	.	.	.
8AA\J 8C# 8E 8A	.	.	.	.	.
=21	=21	=21	=21	=21	=21
8EE\L	.	16dd\LL 16ee	.	4.ryy	.
.	.	16dd\ 16ee	.	.	.
8E\ 8G# 8B 8d	.	16dd\ 16gg#	.	.	.
.	.	16dd\ 16ff#	.	.	.
8E\J 8G# 8B 8d	.	16g#\ 16dd	.	.	.
.	.	16g#\JJ 16b	.	.	.
!LO:LB:g=original	!	!LO:LB:g=original	!	!LO:LB:g=original	!
=22	=22	=22	=22	=22	=22
8AA\L	.	16.d/LL 16.g#	.	4.ryy	.
.	.	32d/JJk 32e	.	.	.
8A\ 8c# 8e	.	8a/L	.	.	.
8A\J 8c# 8e	.	8cc#/J	.	.	.
=23	=23	=23	=23	=23	=23
8E\L	.	16.dd\LL	.	4.ryy	.
.	.	32cc#\JJk	.	.	.
8G#\ 8B 8d	.	8dd\L	.	.	.
8G#\J 8B 8d	.	8ee\J	.	.	.
=24	=24	=24	=24	=24	=24
8AA\L	.	16.cc#\LL	.	4.ryy	.
.	.	32a\JJk	.	.	.
8C#\ 8E 8A	.	8ff#\L	.	.	.
8C#\J 8E 8A	.	8ff#\J	.	.	.
=25	=25	=25	=25	=25	=25
8AA\L 8C# 8E 8A	.	8a^\L 8cc# 8ee	f	4.ryy	.
8AA\ 8C# 8E 8A	.	16.aa\L	.	.	.
.	.	32ee\K	.	.	.
8AA\J 8C# 8E 8A	.	16.ccc#\	.	.	.
.	.	32aa\JJk	.	.	.
=26	=26	=26	=26	=26	=26
8AA\L 8C# 8E 8A	.	16.eee\LL	.	4.ryy	.
.	.	32ccc#\K	.	.	.
8AA\ 8C# 8E 8A	.	16.eee\	.	.	.
.	.	32ccc#\K	.	.	.
8AA\J 8C# 8E 8A	.	16.eee\	.	.	.
.	.	32fff#\JJk	.	.	.
!LO:LB:g=original	!	!LO:LB:g=original	!	!LO:LB:g=original	!
=27	=27	=27	=27	=27	=27
8E\L 8G# 8B 8d	.	16.eee\LL	.	4.ryy	.
.	.	32ddd\JJk	.	.	.
8E\ 8G# 8B 8d	.	8bb\L	.	.	.
8E\J 8G# 8B 8d	.	8ccc#\J	.	.	.
=28	=28	=28	=28	=28	=28
8AA\L 8C# 8E 8A	.	16.bb\LL	.	4.ryy	.
.	.	32aa\JJk	.	.	.
8AA\ 8C# 8E 8A	.	4ee\	.	.	.
8AA\J 8C# 8E 8A	.	.	.	.	.
=29	=29	=29	=29	=29	=29
!	!	!LO:TUP:a	!	!	!
8D\L	.	(24ff#\LL	ff	4.ryy	.
.	.	24ee#X\	.	.	.
.	.	24ff#\JJ)	.	.	.
8F#\ 8B	.	8bb\L	.	.	.
8F#\J 8B	.	8bb\J	.	.	.
=30	=30	=30	=30	=30	=30
8E\L	.	16.ccc#\LL	.	4.ryy	.
.	.	32ddd\JJk	.	.	.
8A\ 8c#	.	8ee\L 8eee	.	.	.
8A\J 8c#	.	8aa\J 8aaa	.	.	.
=31	=31	=31	=31	=31	=31
8E\L	.	16.ff#\LL 16.fff#	.	4.ryy	.
.	.	32ff#\JJk 32fff#	.	.	.
8G#X\ 8B 8d	.	8ee\L 8eee	.	.	.
8B\J 8d 8e	.	8b\J 8dd 8gg#X	.	.	.
=32	=32	=32	=32	=32	=32
8A\L 8c# 8e	.	8cc#\L 8ee 8aa	.	4.ryy	.
8AA\J 8A	.	8cc#\J 8ee 8aa	.	.	.
8r	.	8r	.	.	.
!LO:LB:g=original	!	!LO:LB:g=original	!	!LO:LB:g=original	!
=33||	=33||	=33||	=33||	=33||	=33||
*k[f#]	*	*k[f#]	*	*k[f#]	*
*G:	*	*G:	*	*G:	*
!	!	!	!	!LO:TX:a:B:t=Trio.	!
!	!	!	!	!LO:TX:a:t=D.S. al Fine	!
!	!	!LO:TUP:b	!	!	!
8GG/L 8BB 8D 8G	.	24d/LL	f	4.ryy	.
.	.	24g/	.	.	.
.	.	24b/JJ	.	.	.
8GG/ 8BB 8D 8G	.	4dd^\	.	.	.
8GG/J 8BB 8D 8G	.	.	.	.	.
=34	=34	=34	=34	=34	=34
!	!	!LO:TUP:a	!	!	!
8GG/L 8BB 8D 8G	.	24g\LL	.	4.ryy	.
.	.	24b\	.	.	.
.	.	24dd\JJ	.	.	.
8GG/ 8BB 8D 8G	.	4gg^\	.	.	.
8GG/J 8BB 8D 8G	.	.	.	.	.
=35	=35	=35	=35	=35	=35
16d\LL	.	16dd/LL	.	4.ryy	.
!LO:TUP:a	!	!LO:TUP:b	!	!	!
48D\L	.	48d/L	.	.	.
48D\	.	48d/	.	.	.
48D\JJJ	.	48d/JJJ	.	.	.
8D\L	.	8d/L	.	.	.
8D\J	.	8d/J	.	.	.
=36	=36	=36	=36	=36	=36
8GG/L 8BB 8D 8G	.	4.g/	.	4.ryy	.
8GG/ 8BB 8D 8G	.	.	.	.	.
8GG/J 8BB 8D 8G	.	.	.	.	.
!LO:LB:g=original	!	!LO:LB:g=original	!	!LO:LB:g=original	!
=37	=37	=37	=37	=37	=37
!	!	!	!	!LO:TX:a:t=SKRZYPCE.	!
!	!	!	!	!LO:TUP:a	!
8GG\L	.	16.g/LL	f	(24gg\LL	f
.	.	.	.	24ff#\	.
.	.	.	.	24gg\JJ)	.
.	.	32d/JJk	.	.	.
8G\ 8B 8d	.	8g/L	.	16.bb\LL	.
.	.	.	.	32bb\K	.
8G\J 8B 8d	.	8b/J	.	16gg\	.
.	.	.	.	16bb\JJ	.
=38	=38	=38	=38	=38	=38
8GG\L	.	4dd\	.	16.ddd\LL	.
.	.	.	.	32bb\K	.
8G\ 8B 8d	.	.	.	16dd\	.
.	.	.	.	16gg\	.
8G\J 8B 8d	.	8dd\	.	16bb\	.
.	.	.	.	16ddd\JJ	.
=39	=39	=39	=39	=39	=39
8C\L 8E 8G 8c	.	8ee\L	.	16.ccc\LL	.
.	.	.	.	32eee\K	.
8G\ 8B 8d	.	8.dd\	.	16.bb\	.
.	.	.	.	32ddd\K	.
8G\J 8A 8c#X 8e#X	.	.	.	16.aa#X\	.
.	.	16cc#X\Jk	.	.	.
.	.	.	.	32ccc#X\JJk	.
=40	=40	=40	=40	=40	=40
8GG\L	.	8dd\	.	8bb\L	.
.	.	.	.	(8qbb/	.
8G\ 8B 8d	.	4b\	.	8ddd\)	.
.	.	.	.	(8qaan/	.
8G\J 8B 8d	.	.	.	8gg\J)	.
=41	=41	=41	=41	=41	=41
!	!	!	!	!LO:TUP:a	!
8D\L	.	8a/L	.	(24ff#\LL	.
.	.	.	.	24ee#X\	.
.	.	.	.	24ff#\JJ)	.
8F#\ 8A 8c	.	8.a/	.	16dd\LL	.
.	.	.	.	16ff#\	.
8F#\J 8A 8c	.	.	.	16aa\	.
.	.	16b/Jk	.	16bb\JJ	.
!LO:LB:g=original	!	!LO:LB:g=original	!	!LO:LB:g=original	!
=42	=42	=42	=42	=42	=42
8D\L	.	16.cc\LL	.	16.ccc\LL	.
.	.	32b\JJk	.	32bb\K	.
8F#\ 8A 8c	.	8cc\L	.	16ccc\	.
.	.	.	.	16aa\J	.
.	.	.	.	(8qeee/	.
8F#\J 8A 8c	.	8dd\J	.	8ddd\J)	.
=43	=43	=43	=43	=43	=43
!	!	!	!	!LO:TUP:a	!
8D\L	.	4.cc\	.	(24ccc\LL	.
.	.	.	.	24bb\	.
.	.	.	.	24ccc\JJ)	.
8F#\ 8A 8c	.	.	.	16aa\LL	.
.	.	.	.	16ff#\	.
8F#\J 8A 8c	.	.	.	16dd\	.
.	.	.	.	16ff#\JJ	.
=44	=44	=44	=44	=44	=44
8GG\L	.	4b\	.	8gg\L	.
.	.	.	.	(8qgg/	.
8D\ 8G 8B	.	.	.	8bb\)	.
.	.	.	.	(8qbb/	.
8D\J 8G 8B	.	8d/	.	8gg\J)	.
=45	=45	=45	=45	=45	=45
!	!	!	!	!LO:TUP:a	!
8GG\L	.	16.g/LL	.	(24gg\LL	.
.	.	.	.	24ff#\	.
.	.	.	.	24gg\JJ)	.
.	.	32d/JJk	.	.	.
8G\ 8B 8d	.	8g/L	.	16.bb\LL	.
.	.	.	.	32bb\K	.
8G\J 8B 8d	.	8b/J	.	16gg\	.
.	.	.	.	16bb\JJ	.
=46	=46	=46	=46	=46	=46
8GG\L	.	4dd\	.	16.ddd\LL	.
.	.	.	.	32bb\K	.
8G\ 8B 8d	.	.	.	16dd\	.
.	.	.	.	16gg\	.
8G\J 8B 8d	.	8dd\	.	16bb\	.
.	.	.	.	16ddd\JJ	.
!LO:LB:g=original	!	!LO:LB:g=original	!	!LO:LB:g=original	!
=47	=47	=47	=47	=47	=47
8GG\L	.	8gg\L	.	8ggg\L	.
8G\ 8B 8d	.	8.ff#\	.	16fff#\L	.
.	.	.	.	16ccc#X\	.
8G\J 8B 8d	.	.	.	16eee\	.
.	.	16ee\Jk	.	16ddd\JJ	.
=48	=48	=48	=48	=48	=48
8GG\L	.	8dd\	.	8bb\	.
.	.	.	.	(8qaa/	.
8G\ 8B 8d	.	4b\	.	4gg\)	.
8G\J 8B 8d	.	.	.	.	.
=49	=49	=49	=49	=49	=49
!	!	!	!	!LO:TUP:a	!
8AA\L	.	8a\L	.	(24aa\LL	.
.	.	.	.	24gg#X\	.
.	.	.	.	24aa\JJ)	.
8F#\ 8A 8d	.	8.dd\	.	16ff#\LL	.
.	.	.	.	16aa\	.
8F#\J 8A 8d	.	.	.	16ddd\	.
.	.	16ee\Jk	.	16eee\JJ	.
=50	=50	=50	=50	=50	=50
!	!	!	!	!LO:TUP:a	!
8AA\L	.	8ff#\L	.	(24fff#\LL	.
.	.	.	.	24ddd\	.
.	.	.	.	24fff#\JJ)	.
8G\ 8A 8c#X	.	8.ee\	.	16eee\LL	.
.	.	.	.	16ccc#X\	.
8G\J 8A 8c#	.	.	.	16aa\	.
.	.	16ff#\Jk	.	16aaa\JJ	.
=51	=51	=51	=51	=51	=51
8AA\L	.	4.ee\	.	16ggg\LL	.
.	.	.	.	16eee\	.
8G\ 8A 8c#X	.	.	.	16ccc#X\	.
.	.	.	.	16aa\	.
8G\J 8A 8c#	.	.	.	16ccc#\	.
.	.	.	.	16eee\JJ	.
=52	=52	=52	=52	=52	=52
8D\L	.	8dd\L	.	8ddd\L	.
8F#\J 8A 8d	.	8dd\	.	8ddd\	.
8r	.	8dd#X\J	.	8ddd#X\J	.
!LO:LB:g=original	!	!LO:LB:g=original	!	!LO:LB:g=original	!
=53	=53	=53	=53	=53	=53
.	.	(8qee/	f	.	.
16D\ 16F# 16A 16c	.	16eee\)	.	4.ryy	.
16r	.	16r	.	.	.
4D^\ 4F# 4A 4c	.	8.aa^\L	.	.	.
.	.	16bb\Jk	.	.	.
=54	=54	=54	=54	=54	=54
!	!	!LO:TUP:a	!	!	!
8D\L	.	(24ccc\LL	.	4.ryy	.
.	.	24bb\	.	.	.
.	.	24ccc\JJ)	.	.	.
8F#\ 8A 8c	.	8dddn\L	.	.	.
8F#\J 8A 8c	.	8ddd#X\J	.	.	.
=55	=55	=55	=55	=55	=55
8D\L	.	16.fff#\LL	.	4.ryy	.
.	.	32eee\JJk	.	.	.
8F#\ 8A 8c	.	8aa\L	.	.	.
8F#\J 8A 8c	.	8bb\J	.	.	.
=56	=56	=56	=56	=56	=56
16D\ 16F# 16A	.	16ccc\	.	4.ryy	.
16r	.	16r	.	.	.
4D^\ 4A 4c	.	4ff#^\	.	.	.
=57	=57	=57	=57	=57	=57
.	.	(8qaa/	.	.	.
8GG\L	.	16.gg\LL)	.	4.ryy	.
.	.	32ff#\K	.	.	.
8D\ 8G 8B	.	16gg\	.	.	.
.	.	16aa\	.	.	.
8D\J 8G 8B	.	16bb\	.	.	.
.	.	16ccc\JJ	.	.	.
!LO:LB:g=original	!	!LO:LB:g=original	!	!LO:LB:g=original	!
=58	=58	=58	=58	=58	=58
8GG\L	.	4ddd\	.	4.ryy	.
8D\ 8G 8B	.	.	.	.	.
8D\J 8G 8B	.	8ddd\	.	.	.
=59	=59	=59	=59	=59	=59
8GG\L	.	8ggg\L	.	4.ryy	.
8G\ 8B 8d	.	8.fff#^\	.	.	.
8G\J 8B 8d	.	.	.	.	.
.	.	16eee\Jk	.	.	.
=60	=60	=60	=60	=60	=60
8GG\L	.	8ddd\L	.	4.ryy	.
8G\J 8B 8d	.	8ddd\	.	.	.
8r	.	8ddd#X\J	.	.	.
=61	=61	=61	=61	=61	=61
16D\ 16F# 16A 16c	.	16eee\	.	4.ryy	.
16r	.	16r	.	.	.
4D^\ 4F# 4c	.	8.aa^\L	.	.	.
.	.	16bb\Jk	.	.	.
=62	=62	=62	=62	=62	=62
!	!	!LO:TUP:a	!	!	!
8D\L	.	(24ccc\LL	.	4.ryy	.
.	.	24bb\	.	.	.
.	.	24ccc\JJ)	.	.	.
8F#\ 8A 8c	.	8dddn\L	.	.	.
8F#\J 8A 8c	.	8ddd#X\J	.	.	.
=63	=63	=63	=63	=63	=63
8D\L	.	16.fff#\LL	.	4.ryy	.
.	.	32eee\JJk	.	.	.
8F#\ 8A 8c	.	8aa\L	.	.	.
8F#\J 8A 8c	.	8bb\J	.	.	.
!LO:LB:g=original	!	!LO:LB:g=original	!	!LO:LB:g=original	!
=64	=64	=64	=64	=64	=64
16D\ 16F# 16A	.	16ccc\	.	4.ryy	.
16r	.	16r	.	.	.
4D^\ 4A 4c	.	4ff#^\	.	.	.
=65	=65	=65	=65	=65	=65
.	.	(8qaa/	.	.	.
8G\L	.	16.gg\LL)	.	4.ryy	.
.	.	32ff#\K	.	.	.
8B\ 8d	.	16gg\	.	.	.
.	.	16aa\	.	.	.
8G#X\J 8B 8d 8e	.	16bb\	.	.	.
.	.	16ccc\JJ	.	.	.
=66	=66	=66	=66	=66	=66
8A\L	.	8ddd\L	.	4.ryy	.
8c\ 8e	.	8.ccc^\	.	.	.
8c\J 8e	.	.	.	.	.
.	.	16bb\Jk	.	.	.
=67	=67	=67	=67	=67	=67
.	.	(8qbb/	.	.	.
8D\L 8F# 8c	.	16.aa\LL)	.	4.ryy	.
.	.	32gg#X\JJk	.	.	.
8r	.	8aa\L	.	.	.
8D\J 8F# 8c	.	8ddd\J	.	.	.
=68	=68	=68	=68	=68	=68
8G/L 8B	.	8gg\L	.	4.ryy	.
!LO:TX:b:i:t=Mazur D. C.	!	!	!	!	!
8GGG/J 8GG	.	8gg\J 8bb 8ddd 8ggg	sfz	.	.
8r	.	8r	.	.	.
=:|!	=:|!	=:|!	=:|!	=:|!	=:|!
*-	*-	*-	*-	*-	*-
!!!system-decoration: s1[(s2,s3)]
!!!ENC: Solarz Mateusz
!!!END: 2022-08-01
!!!ENC: Julita Ruszuk
!!!END: 2022-09-02
!!!YEC: Copyright 2022 Narodowy Instytut Fryderyka Chopina (https://polishscores.org)
!!!YEM: License CC-BY-4.0 (https://creativecommons.org/licenses/by/4.0)
